dist/img/preloader__bg--2.svg

<svg width="1920" height="28" viewBox="0 0 1920 28" fill="none" xmlns="http://www.w3.org/2000/svg">
<g>
<path d="M9.12331 27.1036C29.2426 27.1036 46.8141 16.2073 56.2466 0H52.475C43.3967 14.351 27.3742 23.8819 9.12331 23.8819C-9.1276 23.8819 -25.1501 14.351 -34.2283 0H-38C-28.5675 16.2073 -10.996 27.1036 9.12331 27.1036Z" fill="white"/>
<path d="M99.6741 27.1036C119.793 27.1036 137.365 16.2073 146.797 0H143.026C133.947 14.351 117.925 23.8819 99.6741 23.8819C81.4232 23.8819 65.4007 14.351 56.3224 0H52.5508C61.9833 16.2073 79.5548 27.1036 99.6741 27.1036Z" fill="white"/>
<path d="M190.225 27.1036C210.344 27.1036 227.916 16.2073 237.348 0H233.577C224.498 14.351 208.476 23.8819 190.225 23.8819C171.974 23.8819 155.951 14.351 146.873 0H143.102C152.534 16.2073 170.106 27.1036 190.225 27.1036Z" fill="white"/>
<path d="M280.776 27.1036C300.895 27.1036 318.466 16.2073 327.899 0H324.127C315.049 14.351 299.027 23.8819 280.776 23.8819C262.525 23.8819 246.502 14.351 237.424 0H233.652C243.085 16.2073 260.656 27.1036 280.776 27.1036Z" fill="white"/>
<path d="M371.326 27.1036C391.446 27.1036 409.017 16.2073 418.45 0H414.678C405.6 14.351 389.577 23.8819 371.326 23.8819C353.076 23.8819 337.053 14.351 327.975 0H324.203C333.636 16.2073 351.207 27.1036 371.326 27.1036Z" fill="white"/>
<path d="M461.877 27.1036C481.996 27.1036 499.568 16.2073 509.001 0H505.229C496.151 14.351 480.128 23.8819 461.877 23.8819C443.626 23.8819 427.604 14.351 418.526 0H414.754C424.186 16.2073 441.758 27.1036 461.877 27.1036Z" fill="white"/>
<path d="M552.428 27.1036C572.547 27.1036 590.119 16.2073 599.551 0H595.78C586.701 14.351 570.679 23.8819 552.428 23.8819C534.177 23.8819 518.155 14.351 509.076 0H505.305C514.737 16.2073 532.309 27.1036 552.428 27.1036Z" fill="white"/>
<path d="M642.979 27.1036C663.098 27.1036 680.67 16.2073 690.102 0H686.33C677.252 14.351 661.23 23.8819 642.979 23.8819C624.728 23.8819 608.705 14.351 599.627 0H595.855C605.288 16.2073 622.86 27.1036 642.979 27.1036Z" fill="white"/>
<path d="M733.53 27.1036C753.649 27.1036 771.22 16.2073 780.653 0H776.881C767.803 14.351 751.78 23.8819 733.53 23.8819C715.279 23.8819 699.256 14.351 690.178 0H686.406C695.839 16.2073 713.41 27.1036 733.53 27.1036Z" fill="white"/>
<path d="M824.08 27.1036C844.2 27.1036 861.771 16.2073 871.204 0H867.432C858.354 14.351 842.331 23.8819 824.08 23.8819C805.829 23.8819 789.807 14.351 780.729 0H776.957C786.39 16.2073 803.961 27.1036 824.08 27.1036Z" fill="white"/>
<path d="M914.631 27.1036C934.75 27.1036 952.322 16.2073 961.754 0H957.983C948.904 14.351 932.882 23.8819 914.631 23.8819C896.38 23.8819 880.358 14.351 871.279 0H867.508C876.94 16.2073 894.512 27.1036 914.631 27.1036Z" fill="white"/>
<path d="M1005.18 27.1036C1025.3 27.1036 1042.87 16.2073 1052.31 0H1048.53C1039.46 14.351 1023.43 23.8819 1005.18 23.8819C986.931 23.8819 970.909 14.351 961.83 0H958.059C967.491 16.2073 985.063 27.1036 1005.18 27.1036Z" fill="white"/>
<path d="M1095.73 27.1036C1115.85 27.1036 1133.42 16.2073 1142.86 0H1139.08C1130.01 14.351 1113.98 23.8819 1095.73 23.8819C1077.48 23.8819 1061.46 14.351 1052.38 0H1048.61C1058.04 16.2073 1075.61 27.1036 1095.73 27.1036Z" fill="white"/>
<path d="M1186.28 27.1036C1206.4 27.1036 1223.97 16.2073 1233.41 0H1229.64C1220.56 14.351 1204.53 23.8819 1186.28 23.8819C1168.03 23.8819 1152.01 14.351 1142.93 0H1139.16C1148.59 16.2073 1166.16 27.1036 1186.28 27.1036Z" fill="white"/>
<path d="M1276.83 27.1036C1296.95 27.1036 1314.53 16.2073 1323.96 0H1320.19C1311.11 14.351 1295.09 23.8819 1276.83 23.8819C1258.58 23.8819 1242.56 14.351 1233.48 0H1229.71C1239.14 16.2073 1256.71 27.1036 1276.83 27.1036Z" fill="white"/>
<path d="M1367.39 27.1036C1387.5 27.1036 1405.08 16.2073 1414.51 0H1410.74C1401.66 14.351 1385.64 23.8819 1367.39 23.8819C1349.13 23.8819 1333.11 14.351 1324.03 0H1320.26C1329.69 16.2073 1347.27 27.1036 1367.39 27.1036Z" fill="white"/>
<path d="M1457.94 27.1036C1478.06 27.1036 1495.63 16.2073 1505.06 0H1501.29C1492.21 14.351 1476.19 23.8819 1457.94 23.8819C1439.68 23.8819 1423.66 14.351 1414.58 0H1410.81C1420.24 16.2073 1437.82 27.1036 1457.94 27.1036Z" fill="white"/>
<path d="M1548.48 27.1036C1568.6 27.1036 1586.17 16.2073 1595.61 0H1591.83C1582.76 14.351 1566.73 23.8819 1548.48 23.8819C1530.23 23.8819 1514.21 14.351 1505.13 0H1501.36C1510.79 16.2073 1528.36 27.1036 1548.48 27.1036Z" fill="white"/>
<path d="M1639.03 27.1036C1659.15 27.1036 1676.72 16.2073 1686.16 0H1682.39C1673.31 14.351 1657.28 23.8819 1639.03 23.8819C1620.78 23.8819 1604.76 14.351 1595.68 0H1591.91C1601.34 16.2073 1618.91 27.1036 1639.03 27.1036Z" fill="white"/>
<path d="M1729.58 27.1036C1749.7 27.1036 1767.28 16.2073 1776.71 0H1772.94C1763.86 14.351 1747.84 23.8819 1729.58 23.8819C1711.33 23.8819 1695.31 14.351 1686.23 0H1682.46C1691.89 16.2073 1709.46 27.1036 1729.58 27.1036Z" fill="white"/>
<path d="M1820.14 27.1036C1840.25 27.1036 1857.83 16.2073 1867.26 0H1863.49C1854.41 14.351 1838.39 23.8819 1820.14 23.8819C1801.88 23.8819 1785.86 14.351 1776.78 0H1773.01C1782.44 16.2073 1800.02 27.1036 1820.14 27.1036Z" fill="white"/>
<path d="M1910.69 27.1036C1930.81 27.1036 1948.38 16.2073 1957.81 0H1954.04C1944.96 14.351 1928.94 23.8819 1910.69 23.8819C1892.43 23.8819 1876.41 14.351 1867.33 0H1863.56C1872.99 16.2073 1890.57 27.1036 1910.69 27.1036Z" fill="white"/>
</g>
</svg>

<svg width="1920" height="28" viewBox="0 0 1920 28" fill="none" xmlns="http://www.w3.org/2000/svg"><g fill="#fff"><path d="M9.123 27.104c20.12 0 37.691-10.897 47.124-27.104h-3.772c-9.078 14.351-25.1 23.882-43.352 23.882-18.25 0-34.273-9.531-43.351-23.882H-38c9.433 16.207 27.004 27.104 47.123 27.104z"/><path d="M99.674 27.104c20.119 0 37.691-10.897 47.123-27.104h-3.771c-9.079 14.351-25.101 23.882-43.352 23.882-18.25 0-34.273-9.531-43.352-23.882h-3.771c9.432 16.207 27.004 27.104 47.123 27.104z"/><path d="M190.225 27.104c20.119 0 37.691-10.897 47.123-27.104h-3.771c-9.079 14.351-25.101 23.882-43.352 23.882-18.251 0-34.274-9.531-43.352-23.882h-3.771c9.432 16.207 27.004 27.104 47.123 27.104z"/><path d="M280.776 27.104c20.119 0 37.69-10.897 47.123-27.104h-3.772c-9.078 14.351-25.1 23.882-43.351 23.882-18.251 0-34.274-9.531-43.352-23.882h-3.772c9.433 16.207 27.004 27.104 47.124 27.104z"/><path d="M371.326 27.104c20.12 0 37.691-10.897 47.124-27.104h-3.772c-9.078 14.351-25.101 23.882-43.352 23.882-18.25 0-34.273-9.531-43.351-23.882h-3.772c9.433 16.207 27.004 27.104 47.123 27.104z"/><path d="M461.877 27.104c20.119 0 37.691-10.897 47.124-27.104h-3.772c-9.078 14.351-25.101 23.882-43.352 23.882-18.251 0-34.273-9.531-43.351-23.882h-3.772c9.432 16.207 27.004 27.104 47.123 27.104z"/><path d="M552.428 27.104c20.119 0 37.691-10.897 47.123-27.104h-3.771c-9.079 14.351-25.101 23.882-43.352 23.882-18.251 0-34.273-9.531-43.352-23.882h-3.771c9.432 16.207 27.004 27.104 47.123 27.104z"/><path d="M642.979 27.104c20.119 0 37.691-10.897 47.123-27.104h-3.772c-9.078 14.351-25.1 23.882-43.351 23.882-18.251 0-34.274-9.531-43.352-23.882h-3.772c9.433 16.207 27.005 27.104 47.124 27.104z"/><path d="M733.53 27.104c20.119 0 37.69-10.897 47.123-27.104h-3.772c-9.078 14.351-25.101 23.882-43.351 23.882-18.251 0-34.274-9.531-43.352-23.882h-3.772c9.433 16.207 27.004 27.104 47.124 27.104z"/><path d="M824.08 27.104c20.12 0 37.691-10.897 47.124-27.104h-3.772c-9.078 14.351-25.101 23.882-43.352 23.882-18.251 0-34.273-9.531-43.351-23.882h-3.772c9.433 16.207 27.004 27.104 47.123 27.104z"/><path d="M914.631 27.104c20.119 0 37.691-10.897 47.123-27.104h-3.771c-9.079 14.351-25.101 23.882-43.352 23.882-18.251 0-34.273-9.531-43.352-23.882h-3.771c9.432 16.207 27.004 27.104 47.123 27.104z"/><path d="M1005.18 27.104c20.12 0 37.69-10.897 47.13-27.104h-3.78c-9.07 14.351-25.1 23.882-43.35 23.882-18.249 0-34.271-9.531-43.35-23.882h-3.771c9.432 16.207 27.004 27.104 47.121 27.104z"/><path d="M1095.73 27.104c20.12 0 37.69-10.897 47.13-27.104h-3.78c-9.07 14.351-25.1 23.882-43.35 23.882S1061.46 14.35 1052.38 0h-3.77c9.43 16.207 27 27.104 47.12 27.104z"/><path d="M1186.28 27.104c20.12 0 37.69-10.897 47.13-27.104h-3.77c-9.08 14.351-25.11 23.882-43.36 23.882S1152.01 14.35 1142.93 0h-3.77c9.43 16.207 27 27.104 47.12 27.104z"/><path d="M1276.83 27.104c20.12 0 37.7-10.897 47.13-27.104h-3.77c-9.08 14.351-25.1 23.882-43.36 23.882-18.25 0-34.27-9.531-43.35-23.882h-3.77c9.43 16.207 27 27.104 47.12 27.104z"/><path d="M1367.39 27.104c20.11 0 37.69-10.897 47.12-27.104h-3.77c-9.08 14.351-25.1 23.882-43.35 23.882-18.26 0-34.28-9.531-43.36-23.882h-3.77c9.43 16.207 27.01 27.104 47.13 27.104z"/><path d="M1457.94 27.104c20.12 0 37.69-10.897 47.12-27.104h-3.77c-9.08 14.351-25.1 23.882-43.35 23.882-18.26 0-34.28-9.531-43.36-23.882h-3.77c9.43 16.207 27.01 27.104 47.13 27.104z"/><path d="M1548.48 27.104c20.12 0 37.69-10.897 47.13-27.104h-3.78c-9.07 14.351-25.1 23.882-43.35 23.882S1514.21 14.35 1505.13 0h-3.77c9.43 16.207 27 27.104 47.12 27.104z"/><path d="M1639.03 27.104c20.12 0 37.69-10.897 47.13-27.104h-3.77c-9.08 14.351-25.11 23.882-43.36 23.882S1604.76 14.35 1595.68 0h-3.77c9.43 16.207 27 27.104 47.12 27.104z"/><path d="M1729.58 27.104c20.12 0 37.7-10.897 47.13-27.104h-3.77c-9.08 14.351-25.1 23.882-43.36 23.882-18.25 0-34.27-9.531-43.35-23.882h-3.77c9.43 16.207 27 27.104 47.12 27.104z"/><path d="M1820.14 27.104c20.11 0 37.69-10.897 47.12-27.104h-3.77c-9.08 14.351-25.1 23.882-43.35 23.882-18.26 0-34.28-9.531-43.36-23.882h-3.77c9.43 16.207 27.01 27.104 47.13 27.104z"/><path d="M1910.69 27.104c20.12 0 37.69-10.897 47.12-27.104h-3.77c-9.08 14.351-25.1 23.882-43.35 23.882-18.26 0-34.28-9.531-43.36-23.882h-3.77c9.43 16.207 27.01 27.104 47.13 27.104z"/></g></svg>
